src/main/webapp/resources/showcase/images/icon-templates.svg

<svg height="57" viewBox="0 0 52 57" width="52" xmlns="http://www.w3.org/2000/svg"><g fill="none" fill-rule="evenodd"><path d="m14.422 0-5.886 6.544-8.536-1.635 5.43 16.678 2.479 20.318 12.453 15.095h10.963l12.296-15.054 2.636-20.51 5.743-16.528-8.458 1.635-6.108-6.543z" fill="#30383c"/><g fill="#fff"><path d="m39.548 14h-27.838c-.669 0-1.21.531-1.21 1.187v22.555c0 .656.541 1.187 1.21 1.187h27.838c.67 0 1.21-.531 1.21-1.187v-22.555c0-.656-.54-1.187-1.21-1.187zm-13.632 23.742c-.669 0-1.21-.531-1.21-1.187s.541-1.187 1.21-1.187 1.21.53 1.21 1.187c0 .656-.541 1.187-1.21 1.187zm13.632-3.562h-27.838v-18.4c0-.312.287-.593.606-.593h26.627c.319 0 .605.281.605.594v18.4zm-6.95 8.194h-1.21c-.988 0-1.816-.812-1.816-1.78v-.594h-7.836v.594c0 .968-.828 1.78-1.815 1.78h-1.21c-.67 0-1.211.25-1.211.875v.281h16.34v-.281c-.032-.656-.574-.875-1.242-.875z"/><path d="m12.5 16h26.103v4.748h-26.103zm14 7.187h12.103v4.748h-12.103zm-14-.187h12.103v1.187h-12.103zm0 4h12.103v1.187h-12.103zm0-2h12.103v1.187h-12.103zm10 5h6.657v3.561h-6.657zm-10 0h8.154v3.561h-8.154zm18 0h8.154v1.187h-8.154zm0 2h8.154v1.187h-8.154z"/></g></g></svg>

<svg xmlns="http://www.w3.org/2000/svg" width="52" height="57" viewBox="0 0 52 57">
    <g fill="none" fill-rule="evenodd">
        <path fill="#30383C" d="M14.422 0L8.536 6.544 0 4.909l5.43 16.678 2.479 20.318L20.362 57h10.963l12.296-15.054 2.636-20.51L52 4.908l-8.458 1.635L37.434 0z"/>
        <path fill="#FFF" d="M39.548 14H11.71c-.669 0-1.21.531-1.21 1.187v22.555c0 .656.541 1.187 1.21 1.187h27.838c.67 0 1.21-.531 1.21-1.187V15.187c0-.656-.54-1.187-1.21-1.187zM25.916 37.742c-.669 0-1.21-.531-1.21-1.187s.541-1.187 1.21-1.187c.669 0 1.21.53 1.21 1.187 0 .656-.541 1.187-1.21 1.187zm13.632-3.562H11.71v-18.4c0-.312.287-.593.606-.593h26.627c.319 0 .605.281.605.594v18.4zM32.598 42.374h-1.21c-.988 0-1.816-.812-1.816-1.78V40h-7.836v.594c0 .968-.828 1.78-1.815 1.78h-1.21c-.67 0-1.211.25-1.211.875v.281h16.34v-.281c-.032-.656-.574-.875-1.242-.875z"/>
        <path fill="#FFF" d="M12.5 16h26.103v4.748H12.5zM26.5 23.187h12.103v4.748H26.5zM12.5 23h12.103v1.187H12.5zM12.5 27h12.103v1.187H12.5zM12.5 25h12.103v1.187H12.5zM22.5 30h6.657v3.561H22.5zM12.5 30h8.154v3.561H12.5zM30.5 30h8.154v1.187H30.5zM30.5 32h8.154v1.187H30.5z"/>
    </g>
</svg>
